src/status/32/thunderbird.svg

<svg width="32px" height="32px" version="1.1" viewBox="0 0 32 32" xmlns="http://www.w3.org/2000/svg">
 <path d="m9.3867 26.945c-1.1406-2.3281-1.4023-3.6328-1.4023-3.6328s1.5977 1.6641 3.2305 1.7578l-1.8398-2.6602s-4.3438-1.457-5.5195-1.9414c0.54297 4.6328 5.5312 6.4766 5.5312 6.4766z" fill="#5e81ac"/>
 <path d="m3.6367 21.215 18.453 6.0391 5.1445-14.309-22.102-4.0586c-2.6758 1.9727-1.4961 12.328-1.4961 12.328z" fill="#eceff4"/>
 <path transform="scale(2.5197)" d="m1.4433 8.4196 7.3236 2.3968 1.8557-5.409-6.1547 2.1642-2.6169-3.775c-1.0604 0.78445-0.40773 4.623-0.40773 4.623z" fill="none" stroke="#7a88a1" stroke-width=".1688"/>
 <path d="m14.004 2.4062c-1.3516 0.074219-2.8633 0.86719-4.0469 2.1875-4.4062 1.9727-6.4492 5.0234-7.2852 7.8828-1.8555 6.3555 1.8906 12.973 6.7148 14.469-5.6445-2.7773-5.7812-8.0664-5.6875-10.84 0.55469 0.84766 1.6758 0.94922 1.6758 0.94922-0.125-0.19141-0.23828-0.38281-0.33984-0.57031-0.375-0.92969-0.65234-2.5742-0.1875-4.0703 0.28906-0.93359 1.2344-2.2617 2.5078-2.6719 0.085937 0.69531 0.31641 1.3242 0.16016 2.0664-0.84766 1.4648 0.039063 2.4453 0.039063 2.4453 1.168-1.2852 1.4609-1.0664 2.5469-1.6914 1.2461-0.71484 2.3555-1.4883 2.7734-1.4297 1.668-0.24219 2.4531 0.1875 4.2773 0.51953 1.1562 0.20703 2.4141 0.35938 3.3906 0.48047 0.41016 0.92969 0.62109 1.8945 0.69922 2.7852 0 0 0.27344 2.9766-0.63281 4.7227 0.71484-0.40625 1.2852-0.86328 1.7383-1.3164 0.085938 2.4727-1.7109 4.4922-1.7109 4.4922 0.67969-0.20703 1.25-0.4375 1.7227-0.67188-0.29688 1.625-1.4727 4.9883-6.1445 7.2188 3.8555-0.49219 5.4258-2.3594 5.4258-2.3594s-0.34766 1.2891-2.6875 2.5898c8.1953-1.4961 10.383-9.0156 10.383-9.0156-0.003907-0.007813-0.003907-0.011719-0.007813-0.015625 1.1562-3.6211 0.054687-8.0781-1.3789-10.551-0.85156-1.4883-2.125-2.7461-2.9219-3.4531-0.11719-0.10938-0.24219-0.21875-0.37109-0.32031-0.22266-0.1875-0.35938-0.28906-0.35938-0.28906l-0.007813 0.011719c-0.11328-0.082032-0.23047-0.16406-0.34766-0.24609-1.3086-0.89453-2.7891-1.4531-3.5547-1.6211-2.9336-1.0859-4.9922-0.88672-6.3281-0.74609 0 0 0.066406-0.13672 0.28125-0.32031 0.007812-0.003906 0.015625-0.011719 0.023437-0.019532 0 0 0.003907-0.003906 0.007813-0.007812 0.019531-0.015625 0.042968-0.035156 0.066406-0.050781 0.019531-0.015625 0.03125-0.027344 0.03125-0.027344-0.57031-0.027344-1.4961 0.59766-1.7227 0.71875 0.003906-0.007813 0.003906-0.015625 0.007812-0.023437 0-0.003907 0-0.003907 0.003906-0.007813 0.007813-0.023437 0.019532-0.046875 0.03125-0.070313 0.007813-0.015624 0.015626-0.035156 0.027344-0.050781 0.011719-0.019531 0.023438-0.035156 0.035156-0.054687 0 0 0.003907-0.003906 0.003907-0.007813 0.015625-0.023437 0.03125-0.046875 0.050781-0.070312 0-0.003907 0.003906-0.003907 0.007812-0.007813 0-0.003906 0.003907-0.007812 0.003907-0.007812 0.003906-0.003906 0.007812-0.007813 0.007812-0.011719 0.30469-0.375 0.86328-0.77344 1.0312-0.89062 0.03125-0.019531 0.046875-0.03125 0.046875-0.03125z" fill="#5e81ac"/>
</svg>

<svg xmlns="http://www.w3.org/2000/svg" xmlns:xlink="http://www.w3.org/1999/xlink" width="32px" height="32px" viewBox="0 0 32 32" version="1.1">
<g id="surface1">
<path style=" stroke:none;fill-rule:nonzero;fill:rgb(36.862746%,50.588238%,67.450982%);fill-opacity:1;" d="M 9.386719 26.945312 C 8.246094 24.617188 7.984375 23.3125 7.984375 23.3125 C 7.984375 23.3125 9.582031 24.976562 11.214844 25.070312 L 9.375 22.410156 C 9.375 22.410156 5.03125 20.953125 3.855469 20.46875 C 4.398438 25.101562 9.386719 26.945312 9.386719 26.945312 Z M 9.386719 26.945312 "/>
<path style=" stroke:none;fill-rule:nonzero;fill:rgb(92.54902%,93.725491%,95.686275%);fill-opacity:1;" d="M 3.636719 21.214844 L 22.089844 27.253906 L 27.234375 12.945312 L 5.132812 8.886719 C 2.457031 10.859375 3.636719 21.214844 3.636719 21.214844 Z M 3.636719 21.214844 "/>
<path style="fill:none;stroke-width:0.1688;stroke-linecap:butt;stroke-linejoin:miter;stroke:rgb(48.235294%,53.333336%,63.137257%);stroke-opacity:1;stroke-miterlimit:4;" d="M 1.443323 8.419641 L 8.766907 10.816394 L 10.622607 5.407422 L 4.467944 7.571631 L 1.85105 3.796667 C 0.790649 4.581116 1.443323 8.419641 1.443323 8.419641 Z M 1.443323 8.419641 " transform="matrix(2.519685,0,0,2.519685,0,0)"/>
<path style=" stroke:none;fill-rule:nonzero;fill:rgb(36.862746%,50.588238%,67.450982%);fill-opacity:1;" d="M 14.003906 2.40625 C 12.652344 2.480469 11.140625 3.273438 9.957031 4.59375 C 5.550781 6.566406 3.507812 9.617188 2.671875 12.476562 C 0.816406 18.832031 4.5625 25.449219 9.386719 26.945312 C 3.742188 24.167969 3.605469 18.878906 3.699219 16.105469 C 4.253906 16.953125 5.375 17.054688 5.375 17.054688 C 5.25 16.863281 5.136719 16.671875 5.035156 16.484375 C 4.660156 15.554688 4.382812 13.910156 4.847656 12.414062 C 5.136719 11.480469 6.082031 10.152344 7.355469 9.742188 C 7.441406 10.4375 7.671875 11.066406 7.515625 11.808594 C 6.667969 13.273438 7.554688 14.253906 7.554688 14.253906 C 8.722656 12.96875 9.015625 13.1875 10.101562 12.5625 C 11.347656 11.847656 12.457031 11.074219 12.875 11.132812 C 14.542969 10.890625 15.328125 11.320312 17.152344 11.652344 C 18.308594 11.859375 19.566406 12.011719 20.542969 12.132812 C 20.953125 13.0625 21.164062 14.027344 21.242188 14.917969 C 21.242188 14.917969 21.515625 17.894531 20.609375 19.640625 C 21.324219 19.234375 21.894531 18.777344 22.347656 18.324219 C 22.433594 20.796875 20.636719 22.816406 20.636719 22.816406 C 21.316406 22.609375 21.886719 22.378906 22.359375 22.144531 C 22.0625 23.769531 20.886719 27.132812 16.214844 29.363281 C 20.070312 28.871094 21.640625 27.003906 21.640625 27.003906 C 21.640625 27.003906 21.292969 28.292969 18.953125 29.59375 C 27.148438 28.097656 29.335938 20.578125 29.335938 20.578125 C 29.332031 20.570312 29.332031 20.566406 29.328125 20.5625 C 30.484375 16.941406 29.382812 12.484375 27.949219 10.011719 C 27.097656 8.523438 25.824219 7.265625 25.027344 6.558594 C 24.910156 6.449219 24.785156 6.339844 24.65625 6.238281 C 24.433594 6.050781 24.296875 5.949219 24.296875 5.949219 L 24.289062 5.960938 C 24.175781 5.878906 24.058594 5.796875 23.941406 5.714844 C 22.632812 4.820312 21.152344 4.261719 20.386719 4.09375 C 17.453125 3.007812 15.394531 3.207031 14.058594 3.347656 C 14.058594 3.347656 14.125 3.210938 14.339844 3.027344 C 14.347656 3.023438 14.355469 3.015625 14.363281 3.007812 C 14.363281 3.007812 14.367188 3.003906 14.371094 3 C 14.390625 2.984375 14.414062 2.964844 14.4375 2.949219 C 14.457031 2.933594 14.46875 2.921875 14.46875 2.921875 C 13.898438 2.894531 12.972656 3.519531 12.746094 3.640625 C 12.75 3.632812 12.75 3.625 12.753906 3.617188 C 12.753906 3.613281 12.753906 3.613281 12.757812 3.609375 C 12.765625 3.585938 12.777344 3.5625 12.789062 3.539062 C 12.796875 3.523438 12.804688 3.503906 12.816406 3.488281 C 12.828125 3.46875 12.839844 3.453125 12.851562 3.433594 C 12.851562 3.433594 12.855469 3.429688 12.855469 3.425781 C 12.871094 3.402344 12.886719 3.378906 12.90625 3.355469 C 12.90625 3.351562 12.910156 3.351562 12.914062 3.347656 C 12.914062 3.34375 12.917969 3.339844 12.917969 3.339844 C 12.921875 3.335938 12.925781 3.332031 12.925781 3.328125 C 13.230469 2.953125 13.789062 2.554688 13.957031 2.4375 C 13.988281 2.417969 14.003906 2.40625 14.003906 2.40625 Z M 14.003906 2.40625 "/>
</g>
</svg>
